assets/svg/star_outline.svg

<?xml version="1.0" encoding="UTF-8" standalone="yes"?>
<svg xmlns="http://www.w3.org/2000/svg" xmlns:xlink="http://www.w3.org/1999/xlink" width="374px" height="374px" viewBox="0 0 374 374" version="1.1">
  <g id="surface1">
    <path style="fill:none;stroke-width:107.38591;stroke-linecap:butt;stroke-linejoin:miter;stroke:rgb(0%,0%,0%);stroke-opacity:1;stroke-miterlimit:4;" d="M 674.316761 62.954545 C 661.244886 65.427807 645.489205 78.502674 631.082102 98.743316 C 611.320739 126.71123 594.430114 160.307487 554.52017 251.283422 C 521.406534 326.684492 508.134375 353.42246 490.856534 378.903743 C 470.721307 408.582888 456.781534 414.505348 407.044318 414.59893 C 378.123295 414.59893 352.353409 412.5 281.532955 404.47861 C 251.930966 401.042781 217.949432 397.513369 192.753693 395.227273 C 174.527841 393.596257 117.153125 393.596257 106.364489 395.227273 C 72.102557 400.574866 56.253409 411.831551 55.011648 431.684492 C 54.344034 443.903743 59.124148 456.97861 70.380114 473.877005 C 89.193466 501.938503 119.449716 532.299465 196.091761 600.160428 C 287.26108 680.828877 315.127273 712.23262 319.22642 738.770053 C 322.764773 761.096257 310.160227 801.377005 275.991761 877.941176 C 241.249148 955.828877 234.946875 969.852941 229.21875 983.890374 C 205.157955 1042.219251 195.624432 1079.157754 198.869034 1101.871658 C 201.819886 1123.061497 212.701989 1133.663102 232.944034 1134.893048 C 262.626136 1136.898396 306.248011 1118.770053 395.120739 1067.700535 C 466.608807 1026.564171 479.600568 1019.21123 495.436364 1010.802139 C 538.484091 987.90107 563.97358 978.542781 583.641477 978.262032 C 595.191193 978.168449 599.009943 979.21123 613.230114 986.283422 C 638.519318 998.970588 668.027841 1022.553476 737.326136 1085.548128 C 833.34233 1172.981283 871.436364 1200.668449 904.55 1207.352941 C 914.297159 1209.358289 921.066761 1208.596257 928.891193 1204.772727 C 938.731818 1200 944.166193 1191.885027 948.372159 1175.748663 C 950.375 1168.02139 950.561932 1165.160428 950.561932 1145.681818 C 950.561932 1133.756684 950.094602 1120.200535 949.413636 1115.13369 C 944.553409 1078.957219 939.2125 1050.802139 925.272727 987.713904 C 903.415057 889.010695 898.634943 861.042781 898.634943 830.494652 C 898.634943 815.026738 900.170455 805.681818 903.882386 797.473262 C 913.522727 776.377005 947.984943 750.695187 1025.588352 706.590909 C 1088.691193 670.802139 1104.914205 661.44385 1121.524432 651.417112 C 1192.064489 608.850267 1223.188636 578.783422 1223.188636 553.395722 C 1223.188636 538.596257 1214.015625 527.339572 1193.973864 517.312834 C 1165.333239 502.994652 1122.579261 494.786096 1025.588352 484.665775 C 925.179261 474.358289 898.26108 470.534759 869.340057 463.181818 C 832.394318 453.636364 820.270455 443.997326 807.478977 414.024064 C 796.316477 387.687166 787.34375 353.983957 770.159375 272.566845 C 757.274432 211.096257 749.91733 179.692513 742.57358 154.491979 C 731.598011 116.497326 719.66108 90.721925 706.295455 75.828877 C 697.322727 65.815508 685.198864 60.949198 674.316761 62.954545 Z M 674.316761 62.954545 " transform="matrix(0.292553,0,0,0.292188,0.0585106,0)"/>
  </g>
</svg>

<?xml version="1.0" encoding="UTF-8" standalone="no"?>
<svg
        xmlns:dc="http://purl.org/dc/elements/1.1/"
        xmlns:cc="http://creativecommons.org/ns#"
        xmlns:rdf="http://www.w3.org/1999/02/22-rdf-syntax-ns#"
        xmlns:sodipodi="http://sodipodi.sourceforge.net/DTD/sodipodi-0.dtd"
        xmlns:inkscape="http://www.inkscape.org/namespaces/inkscape"
        xmlns="http://www.w3.org/2000/svg"
        version="1.0"
        width="1278.000000pt"
        height="1280.000000pt"
        viewBox="0 0 1278.000000 1280.000000"
        preserveAspectRatio="xMidYMid meet"
        id="svg8"
        sodipodi:docname="star_outline.svg"
        inkscape:version="0.92.4 (5da689c313, 2019-01-14)">
    <defs
            id="defs12"/>
    <sodipodi:namedview
            pagecolor="#ffffff"
            bordercolor="#666666"
            borderopacity="1"
            objecttolerance="10"
            gridtolerance="10"
            guidetolerance="10"
            inkscape:pageopacity="0"
            inkscape:pageshadow="2"
            inkscape:window-width="1920"
            inkscape:window-height="995"
            id="namedview10"
            showgrid="false"
            inkscape:zoom="0.2765625"
            inkscape:cx="372.04589"
            inkscape:cy="721.1437"
            inkscape:window-x="0"
            inkscape:window-y="0"
            inkscape:window-maximized="1"
            inkscape:current-layer="svg8"/>
    <metadata
            id="metadata2">
        Created by potrace 1.15, written by Peter Selinger 2001-2017
        <rdf:RDF>
            <cc:Work
                    rdf:about="">
                <dc:format>image/svg+xml</dc:format>
                <dc:type
                        rdf:resource="http://purl.org/dc/dcmitype/StillImage"/>
            </cc:Work>
        </rdf:RDF>
    </metadata>
    <path
            style="fill:none;stroke:#000000;stroke-width:107.38591003;stroke-miterlimit:4;stroke-dasharray:none;stroke-opacity:1"
            inkscape:connector-curvature="0"
            id="path4"
            d="m 674.32114,62.94898 c -13.07722,2.481807 -28.82715,15.559025 -43.24073,35.795304 -19.759,27.968066 -36.65439,61.567926 -76.55422,152.535726 -33.12259,75.40877 -46.39071,102.13593 -63.66791,127.62219 -20.14083,29.68623 -34.07713,35.60439 -83.80874,35.69985 -28.92261,0 -54.69523,-2.1 -125.5222,-10.11814 -29.59079,-3.43635 -63.57246,-6.96816 -88.77235,-9.25906 -18.23175,-1.62272 -75.59969,-1.62272 -86.386,0 -34.268043,5.34544 -50.11343,16.60903 -51.354334,36.46349 -0.668179,12.21813 4.104528,25.29535 15.368117,42.19073 18.804466,28.06352 49.063427,58.41794 125.713107,126.28583 91.15871,80.65875 119.03132,112.06317 123.13585,138.59942 3.5318,22.33627 -9.06815,62.61792 -43.24073,139.17214 -34.74531,77.89058 -41.04528,91.92234 -46.77253,105.9541 -24.05445,58.32244 -33.59986,95.26324 -30.35442,117.98134 2.95908,21.1908 13.84085,31.7862 34.07713,33.0271 29.68624,2.0046 73.30878,-16.1317 162.17659,-67.1997 71.49515,-41.1407 84.47692,-48.4907 100.32231,-56.8907 43.04981,-22.90897 68.53607,-32.26347 88.19962,-32.54983 11.54996,-0.0955 15.36812,0.95454 29.59079,8.01814 25.29535,12.69541 54.79068,36.27259 124.09039,99.27229 96.02687,87.436 134.11307,115.1177 167.23566,121.7995 9.73632,2.0045 16.51356,1.2409 24.3408,-2.5773 9.83178,-4.7727 15.27267,-12.8863 19.47265,-29.018 2.00454,-7.7318 2.19544,-10.5954 2.19544,-30.0681 0,-11.9317 -0.47727,-25.4862 -1.14545,-30.5453 -4.86816,-36.1771 -10.21359,-64.3361 -24.14989,-127.43127 -21.859,-98.69959 -26.63171,-126.66765 -26.63171,-157.21298 0,-15.46357 1.52727,-24.81808 5.24998,-33.02713 9.64087,-21.09537 44.09981,-46.77253 121.70404,-90.87235 63.0952,-35.7953 79.3224,-45.14981 95.9314,-55.17249 70.5406,-42.57255 101.6587,-72.64061 101.6587,-98.03141 0,-14.79539 -9.1636,-26.05898 -29.209,-36.08167 -28.6362,-14.31812 -71.3997,-22.52717 -168.3811,-32.64531 C 925.17463,474.35634 898.25656,470.53817 869.33396,463.18821 832.3932,453.64279 820.27053,444.00192 807.47967,414.02932 796.31154,387.68398 787.33885,353.98866 770.1571,272.56628 757.27079,211.09381 749.92082,179.6894 742.57085,154.4895 731.59363,116.49875 719.66186,90.726135 706.29828,75.835289 697.32559,65.812604 685.20291,60.944443 674.32114,62.94898 Z"/>
</svg>
